svg/fluentui-system-icons/ic_fluent_beach_32_filled.svg

<svg width="32" height="32" viewBox="0 0 32 32" fill="none" xmlns="http://www.w3.org/2000/svg">
<path d="M25.5093 3.18951C21.2149 0.740795 15.7237 2.19397 13.2444 6.43528L12.9067 7.01288C12.7907 7.21134 12.7593 7.44718 12.8194 7.66852C12.8794 7.88987 13.026 8.07858 13.227 8.19316L19.5973 11.8257L15.7854 18.4141L15.7056 18.4137C12.0218 18.4137 8.83161 20.5248 6.93146 23.5075C7.14755 23.432 7.37751 23.3872 7.6155 23.3777C8.08352 23.3591 8.53169 23.4793 8.91288 23.7061C10.5593 21.5561 13.016 20.1418 15.7056 20.1418C18.5099 20.1418 21.0611 21.6794 22.7046 23.9852C23.1286 23.5996 23.693 23.3728 24.2972 23.3759C24.3304 23.376 24.3635 23.3769 24.3964 23.3784C22.8431 21.0075 20.468 19.2084 17.6815 18.6199L21.1126 12.6897L27.2629 16.1967C27.4639 16.3113 27.7026 16.3424 27.9268 16.283C28.1509 16.2237 28.3419 16.0789 28.458 15.8805L28.7956 15.3029C31.275 11.0616 29.8036 5.63823 25.5093 3.18951ZM8.53984 25.4082C8.41714 25.0424 8.06403 24.8011 7.67419 24.8166C7.28436 24.8321 6.95205 25.1007 6.85953 25.475C6.56298 26.6749 5.9998 27.3335 5.358 27.7162C4.68594 28.1169 3.83076 28.272 2.87483 28.272C2.39167 28.272 2 28.6588 2 29.136C2 29.6132 2.39167 30 2.87483 30C3.99085 30 5.20763 29.8243 6.26221 29.1956C6.87145 28.8324 7.39657 28.3358 7.80972 27.6878C9.89684 30.3167 13.9709 30.3033 15.9972 27.6598C18.0556 30.3451 22.2269 30.3165 24.2822 27.5612C25.4184 29.1038 27.2705 30 29.1197 30C29.6028 30 29.9945 29.6132 29.9945 29.136C29.9945 28.6588 29.6028 28.272 29.1197 28.272C27.3997 28.272 25.6846 27.1656 25.1183 25.4167C25.003 25.0604 24.6685 24.8178 24.2896 24.8159C23.9108 24.8139 23.5738 25.053 23.4547 25.4081C22.3306 28.7589 17.9274 28.7165 16.8246 25.5473C16.7032 25.1984 16.3708 24.9641 15.9972 24.9641C15.6237 24.9641 15.2913 25.1984 15.1699 25.5473C14.0671 28.7165 9.66387 28.7589 8.53984 25.4082Z" fill="#212121"/>
</svg>

<svg xmlns="http://www.w3.org/2000/svg" width="32" height="32"><path d="M25.51 3.19c-4.295-2.45-9.786-.996-12.266 3.245l-.337.578a.854.854 0 0 0 .32 1.18l6.37 3.633-3.812 6.588h-.08c-3.683 0-6.873 2.11-8.774 5.093a2.357 2.357 0 0 1 1.982.2c1.646-2.15 4.103-3.565 6.793-3.565 2.804 0 5.355 1.537 6.999 3.843a2.347 2.347 0 0 1 1.691-.607c-1.553-2.37-3.928-4.17-6.715-4.758l3.432-5.93 6.15 3.507a.884.884 0 0 0 1.195-.316l.338-.578c2.479-4.241 1.008-9.665-3.287-12.113ZM8.54 25.408a.874.874 0 0 0-.866-.591.872.872 0 0 0-.814.658c-.297 1.2-.86 1.858-1.502 2.241-.672.4-1.527.556-2.483.556a.87.87 0 0 0-.875.864.87.87 0 0 0 .875.864c1.116 0 2.333-.176 3.387-.804a4.628 4.628 0 0 0 1.548-1.508c2.087 2.629 6.16 2.615 8.187-.028 2.059 2.685 6.23 2.657 8.285-.099C25.418 29.104 27.27 30 29.12 30a.87.87 0 0 0 .874-.864.87.87 0 0 0-.874-.864c-1.72 0-3.435-1.106-4.002-2.855a.874.874 0 0 0-.828-.601.874.874 0 0 0-.835.592c-1.124 3.35-5.528 3.308-6.63.14a.874.874 0 0 0-.828-.584.874.874 0 0 0-.827.583c-1.103 3.17-5.506 3.212-6.63-.139Z"/></svg>
